!! 00000] TT[00
!! NN
!!!OTL: Baiyu
!!!ARE: Xinjiang Yili
!! Ethnic Group: Weiwuer
!! IV, 425
!!!SCT: C0426A
!!!YEM: Copyright 1995, estate of Helmut Schaffrath.
**kern
*ICvox
*Ivox
!! Mixed meters:  2/4; 3/4
*M2/4
*k[b-e-]
*B-:
{8.ff
16ff
=1
8.ff
16gg
16ff
16bb-
8gg
=2
4ff
8ee-
8dd
=3
4cc}
{8.ff
16bb-
=4
[2gg
=5
2gg_
=6
2gg_
=7
4gg]}
{4bb-
=8
8aa
16ff
16ccc
16bb-
16ccc
16aa
16bb-
=9
4gg
16ff
16bb-
8gg}
=10
{8ff
8ee-
8ee-
8dd
=11
4cc
16ff
16een
8ff
=12
[2gg
=13
2gg_
=14
4gg]
4r
=15
4r}
{8.ff
16bb-
=16
8.gg
16bb-
8gg
8bb-
=17
4gg
4gg}
=18
{16gg
16bb-
8ff
8.gg
16gg
=19
[4ccc
16ccc]
16fff
8ddd
=20
8ccc
8ccc
8bb-
16gg
16bb-
=21
8gg
8r}
{8.ccc
16eee-
=22
8ccc
16aa
16ccc
16bb-
16ccc
16aa
16bb-
=23
4gg
4ff
=24
4.ee-
8ff
=25
8cc
8r}
{16cc
16bb-
8gg
=26
16ff
16gg
16ee-
16ff
16ee-
16dd
16cc
16ee-
=27
[2cc
=28
2cc_
=29
2cc_
=30
8cc]
8r}
{8.ff
16ff
=31
8.ff
16gg
16ff
16bb-
8gg
=32
4ff
8ee-
8dd
=33
4cc}
{8.ff
16bb-
=34
[2gg
=35
2gg_
=36
4gg]}
{4bb-
=37
8aa
16ff
16ccc
16bb-
16ccc
16aa
16bb-
=38
4gg
16ff
16bb-
8gg
=39
4ff}
{8ee-
8dd
=40
4cc
16ff
16een
16ff
16ff
=41
[2gg
=42
2gg_
=43
4gg]
4r
=44
4r}
{8.ff
16ff
=45
8.gg
16bb-
8gg
8bb-
=46
4gg
4gg}
=47
{16gg
16bb-
8ff
8.gg
16gg
=48
4ccc
16ccc
16fff
8ddd
=49
8ccc
16bb-
16ccc
8bb-
16gg
16bb-
=50
8gg
8r}
{8.ccc
16eee-
=51
8ccc
16aa
16ccc
8bb-
16aa
16bb-
=52
4gg
4ff
=53
4.ee-
8ff
=54
4r}
{16cc
16bb-
8gg
=55
16ff
16gg
16ee-
16ff
16ee-
16dd
16cc
16ee-
=56
[2cc
=57
2cc_
=58
2cc_
=59
8cc]
8r}
{8.ff
16ff
=60
8.ff
16gg
16ff
16bb-
8gg
=61
4ff}
{8ee-
8dd
=62
4cc
8.ff
16bb-
=63
[2gg
=64
2gg_
=65
8gg]
4.r}
=66
*M3/4
{4bb-
8aa
16ff
16ccc
16bb-
16ccc
16aa
16bb-
=67
*M2/4
4gg
8ff
8gg
=68
4ff}
{8ee-
8dd
=69
8.cc
16cc
16ff
16een
16ff
16ff
=70
[2gg
=71
2gg_
=72
4gg]
4r
=73
4r}
{8.ff
16ff
=74
8.gg
16bb-
8.gg
16bb-
=75
4gg
4gg}
=76
{16gg
16bb-
8ff
8.gg
16gg
=77
4ccc
16ccc
16fff
8ddd
=78
8ccc
8ccc
8bb-
16gg
16bb-
=79
4r}
{8.ccc
16eee-
=80
8ccc
16aa
16ccc
8bb-
16aa
16bb-
=81
4gg
8.ff
16ff
=82
4.ee-
8ff
=83
4r}
{16cc
16bb-
8gg
=84
16ff
16gg
16ff
16ee-
16ee-
16dd
16ee-
16cc
=85
[2cc
=86
2cc_
=87
4cc]
4r
=88
4r}
{8.ff
16ff
=89
8.gg
16bb-
8.gg
16bb-
=90
4gg
4gg}
=91
{16gg
16bb-
8ff
8.gg
16gg
=92
4ccc
16ccc
16fff
8ddd
=93
8ccc
8ccc
8bb-
16gg
16bb-
=94
4gg}
{4ccc
=95
8ccc
16aa
16ccc
8bb-
16aa
16bb-
=96
4gg
8.ff
16ff
=97
4.ee-
8ff
=98
4r}
{16cc
16bb-
8gg
=99
16ff
16gg
16.ee-
32ff
8ee-
16cc
16ee-
=100
[2cc
=101
2cc_
=102
2cc_
=103
4cc]}
==
!! 
!!!ONB: ESAC (Essen Associative Code) Database: CHINA
!!!AMT: irregular
!!!AIN: vox
!!!EED: Helmut Schaffrath
!!!EEV: 1.0
*-
!!!ONB: Tied note syntax fixed by Craig Sapp, 2004/05/03/
